; generated by Slic3r 1.3.0 on 2020-08-14 at 16:39:52

; external perimeters extrusion width = 0.44mm (3.38mm^3/s)
; perimeters extrusion width = 0.48mm (7.54mm^3/s)
; infill extrusion width = 0.48mm (10.05mm^3/s)
; solid infill extrusion width = 0.48mm (2.51mm^3/s)
; top infill extrusion width = 0.48mm (1.88mm^3/s)
; support material extrusion width = 0.44mm (6.76mm^3/s)

M107
M190 S65 ; set bed temperature and wait for it to be reached
M104 S210 ; set temperature
G28 ; home all axes
G1 Z5 F5000 ; lift nozzle

; Filament gcode

M109 S210 ; set temperature and wait for it to be reached
G21 ; set units to millimeters
G90 ; use absolute coordinates
M82 ; use absolute distances for extrusion
G92 E0
G1 Z0.400 F7800.000
G1 E-2.00000 F2400.00000
G92 E0
G1 X114.289 Y134.348 F7800.000
G1 E2.00000 F2400.00000
G1 F1800
G1 X134.383 Y114.268 E5.37384
G1 X137.528 Y111.690 E5.85672
G1 X141.115 Y109.776 E6.33961
G1 X145.007 Y108.599 E6.82249
G1 X148.515 Y108.212 E7.24163
G1 X150.521 Y108.187 E7.47999
G1 X151.507 Y108.212 E7.59708
G1 X155.542 Y108.710 E8.07997
G1 X159.402 Y109.988 E8.56285
G1 X162.938 Y111.994 E9.04573
G1 X165.633 Y114.262 E9.46395
G1 X185.729 Y134.328 E12.83680
G1 X188.310 Y137.469 E13.31969
G1 X190.228 Y141.054 E13.80257
G1 X191.409 Y144.945 E14.28545
G1 X191.807 Y148.979 E14.76690
G1 X191.808 Y150.993 E15.00610
G1 X191.410 Y155.040 E15.48898
G1 X190.229 Y158.930 E15.97187
G1 X188.312 Y162.516 E16.45475
G1 X185.740 Y165.648 E16.93614
G1 X165.657 Y185.728 E20.30896
G1 X162.513 Y188.307 E20.79184
G1 X158.927 Y190.222 E21.27473
G1 X155.035 Y191.399 E21.75761
G1 X151.528 Y191.788 E22.17669
G1 X150.528 Y191.812 E22.29549
G1 X149.493 Y191.812 E22.41840
G1 X148.493 Y191.787 E22.53716
G1 X144.458 Y191.287 E23.02005
G1 X140.599 Y190.009 E23.50293
G1 X137.063 Y188.001 E23.98581
G1 X134.364 Y185.727 E24.40499
G1 X114.284 Y165.647 E27.77757
G1 X111.705 Y162.504 E28.26045
G1 X109.790 Y158.917 E28.74333
G1 X108.612 Y155.026 E29.22622
G1 X108.224 Y151.518 E29.64542
G1 X108.199 Y150.518 E29.76422
G1 X108.199 Y149.482 E29.88716
G1 X108.224 Y148.482 E30.00596
G1 X108.724 Y144.447 E30.48885
G1 X110.002 Y140.588 E30.97173
G1 X112.010 Y137.052 E31.45462
G1 X114.251 Y134.394 E31.86753
G1 E29.86753 F2400.00000
G92 E0
G1 X116.486 Y136.598 F7800.000
G1 E2.00000 F2400.00000
G1 F1800
G1 X121.777 Y131.432 E2.87838
G1 X131.237 Y131.432 E4.00201
G1 X131.456 Y131.212 E4.03889
G1 X131.462 Y121.755 E5.16224
G1 X141.461 Y111.525 E6.86148
G1 X149.766 Y111.327 E7.84819
G1 X158.562 Y111.525 E8.89338
G1 X168.562 Y121.759 E10.59308
G1 X168.565 Y131.199 E11.71440
G1 X168.785 Y131.419 E11.75130
G1 X178.364 Y131.416 E12.88914
G1 X188.658 Y141.703 E14.61795
G1 X188.664 Y158.273 E16.58618
G1 X178.372 Y168.568 E18.31536
G1 X168.798 Y168.568 E19.45266
G1 X168.578 Y168.788 E19.48957
G1 X168.581 Y178.230 E20.61116
G1 X158.584 Y188.472 E22.31127
G1 X149.763 Y188.673 E23.35937
G1 X141.439 Y188.472 E24.34841
G1 X131.443 Y178.234 E26.04806
G1 X131.443 Y168.788 E27.17015
G1 X131.224 Y168.568 E27.20705
G1 X121.777 Y168.568 E28.32915
G1 X111.539 Y158.572 E30.02880
G1 X111.339 Y150.248 E31.01791
G1 X111.539 Y141.428 E32.06581
G1 X116.443 Y136.640 E32.87996
G1 X116.985 Y137.109 F7800.000
G1 F1800
G1 X122.068 Y132.146 E33.72378
G1 X131.950 Y132.146 E34.89765
G1 X132.170 Y131.926 E34.93453
G1 X132.177 Y122.047 E36.10809
G1 X141.769 Y112.232 E37.73825
G1 X149.775 Y112.042 E38.68960
G1 X158.255 Y112.232 E39.69706
G1 X167.848 Y122.051 E41.32765
G1 X167.851 Y131.914 E42.49927
G1 X168.071 Y132.133 E42.53617
G1 X178.068 Y132.130 E43.72371
G1 X187.944 Y142.000 E45.38222
G1 X187.949 Y157.977 E47.28015
G1 X178.076 Y167.854 E48.93903
G1 X168.083 Y167.854 E50.12605
G1 X167.864 Y168.073 E50.16296
G1 X167.867 Y177.939 E51.33487
G1 X158.276 Y187.765 E52.96586
G1 X149.773 Y187.958 E53.97617
G1 X141.747 Y187.765 E54.92983
G1 X132.158 Y177.943 E56.56037
G1 X132.158 Y168.073 E57.73276
G1 X131.938 Y167.854 E57.76966
G1 X122.068 Y167.854 E58.94205
G1 X112.247 Y158.264 E60.57260
G1 X112.053 Y150.238 E61.52632
G1 X112.247 Y141.736 E62.53645
G1 X116.942 Y137.151 E63.31604
G1 X117.484 Y137.620 F7800.000
G1 F1800
G1 X122.359 Y132.861 E64.12532
G1 X132.664 Y132.860 E65.34942
G1 X132.884 Y132.640 E65.38630
G1 X132.891 Y122.338 E66.61008
G1 X142.076 Y112.940 E68.17114
G1 X149.785 Y112.756 E69.08714
G1 X157.947 Y112.939 E70.05686
G1 X167.134 Y122.342 E71.61835
G1 X167.137 Y132.628 E72.84026
G1 X167.357 Y132.848 E72.87716
G1 X177.773 Y132.844 E74.11440
G1 X187.230 Y142.296 E75.70263
G1 X187.235 Y157.682 E77.53026
G1 X177.780 Y167.139 E79.11883
G1 X167.369 Y167.139 E80.35558
G1 X167.149 Y167.359 E80.39249
G1 X167.153 Y177.648 E81.61471
G1 X157.968 Y187.058 E83.17658
G1 X149.783 Y187.244 E84.14911
G1 X142.055 Y187.058 E85.06738
G1 X132.872 Y177.652 E86.62882
G1 X132.872 Y167.359 E87.85150
G1 X132.652 Y167.139 E87.88840
G1 X122.359 Y167.139 E89.11109
G1 X112.954 Y157.956 E90.67253
G1 X112.767 Y149.773 E91.64488
G1 X112.954 Y142.044 E92.56322
G1 X117.441 Y137.662 E93.30826
G1 X117.983 Y138.131 F7800.000
G1 F1800
G1 X122.650 Y133.575 E94.08298
G1 X133.378 Y133.574 E95.35732
G1 X133.597 Y133.354 E95.39420
G1 X133.605 Y122.629 E96.66820
G1 X142.384 Y113.647 E98.16017
G1 X149.795 Y113.470 E99.04081
G1 X157.639 Y113.647 E99.97280
G1 X166.420 Y122.633 E101.46518
G1 X166.423 Y133.343 E102.73739
G1 X166.643 Y133.562 E102.77429
G1 X177.477 Y133.559 E104.06123
G1 X186.516 Y142.592 E105.57917
G1 X186.521 Y157.386 E107.33650
G1 X177.484 Y166.425 E108.85477
G1 X166.654 Y166.425 E110.14123
G1 X166.434 Y166.645 E110.17815
G1 X166.438 Y177.358 E111.45068
G1 X157.660 Y186.351 E112.94342
G1 X149.793 Y186.530 E113.87817
G1 X142.363 Y186.350 E114.76106
G1 X133.586 Y177.361 E116.25339
G1 X133.586 Y166.645 E117.52637
G1 X133.366 Y166.425 E117.56327
G1 X122.650 Y166.425 E118.83625
G1 X113.661 Y157.648 E120.32859
G1 X113.481 Y150.217 E121.21154
G1 X113.661 Y142.352 E122.14612
G1 X117.940 Y138.173 E122.85661
G1 X118.482 Y138.642 F7800.000
G1 F1800
G1 X122.941 Y134.289 E123.59678
G1 X134.092 Y134.288 E124.92136
G1 X134.311 Y134.068 E124.95823
G1 X134.319 Y122.920 E126.28245
G1 X142.691 Y114.354 E127.70534
G1 X149.805 Y114.185 E128.55061
G1 X157.332 Y114.354 E129.44487
G1 X165.705 Y122.924 E130.86814
G1 X165.709 Y134.057 E132.19064
G1 X165.929 Y134.277 E132.22755
G1 X177.181 Y134.273 E133.56419
G1 X185.802 Y142.888 E135.01184
G1 X185.806 Y157.090 E136.69887
G1 X177.188 Y165.711 E138.14683
G1 X165.940 Y165.711 E139.48302
G1 X165.720 Y165.931 E139.51993
G1 X165.724 Y177.067 E140.84278
G1 X157.352 Y185.643 E142.26640
G1 X150.218 Y185.816 E143.11412
G1 X142.671 Y185.643 E144.01087
G1 X134.300 Y177.070 E145.43410
G1 X134.300 Y165.931 E146.75737
G1 X134.081 Y165.711 E146.79427
G1 X122.941 Y165.711 E148.11755
G1 X114.368 Y157.340 E149.54078
G1 X114.196 Y150.207 E150.38835
G1 X114.368 Y142.660 E151.28515
G1 X118.439 Y138.684 E151.96109
G1 X118.981 Y139.153 F7800.000
G1 F1800
G1 X123.232 Y135.004 E152.66671
G1 X134.806 Y135.002 E154.04152
G1 X135.025 Y134.782 E154.07840
G1 X135.033 Y123.212 E155.45283
G1 X142.999 Y115.061 E156.80663
G1 X149.815 Y114.899 E157.61655
G1 X157.024 Y115.061 E158.47307
G1 X164.991 Y123.215 E159.82724
G1 X164.995 Y134.772 E161.20003
G1 X165.215 Y134.992 E161.23693
G1 X176.886 Y134.988 E162.62328
G1 X185.087 Y143.184 E164.00064
G1 X185.092 Y156.794 E165.61737
G1 X176.892 Y164.997 E166.99503
G1 X165.225 Y164.997 E168.38094
G1 X165.005 Y165.216 E168.41785
G1 X165.009 Y176.776 E169.79102
G1 X157.045 Y184.936 E171.14551
G1 X149.813 Y185.101 E172.00470
G1 X142.979 Y184.936 E172.81682
G1 X135.015 Y176.780 E174.17094
G1 X135.015 Y165.216 E175.54451
G1 X134.795 Y164.997 E175.58141
G1 X123.232 Y164.997 E176.95498
G1 X115.075 Y157.033 E178.30911
G1 X114.910 Y150.197 E179.12129
G1 X115.075 Y142.967 E179.98031
G1 X118.938 Y139.195 E180.62170
G1 X119.480 Y139.664 F7800.000
G1 F1800
G1 X123.523 Y135.718 E181.29277
G1 X135.519 Y135.716 E182.71782
G1 X135.739 Y135.496 E182.75469
G1 X135.747 Y123.503 E184.17935
G1 X143.307 Y115.768 E185.46405
G1 X149.825 Y115.613 E186.23862
G1 X156.717 Y115.768 E187.05741
G1 X164.277 Y123.506 E188.34246
G1 X164.281 Y135.486 E189.76555
G1 X164.501 Y135.706 E189.80245
G1 X176.590 Y135.702 E191.23850
G1 X184.373 Y143.480 E192.54557
G1 X184.378 Y156.499 E194.09201
G1 X176.596 Y164.282 E195.39936
G1 X164.511 Y164.282 E196.83499
G1 X164.291 Y164.502 E196.87190
G1 X164.295 Y176.486 E198.29538
G1 X156.737 Y184.229 E199.58075
G1 X149.824 Y184.387 E200.40215
G1 X143.286 Y184.229 E201.17889
G1 X135.729 Y176.489 E202.46391
G1 X135.729 Y164.502 E203.88777
G1 X135.509 Y164.282 E203.92467
G1 X123.523 Y164.282 E205.34854
G1 X115.782 Y156.725 E206.63356
G1 X115.624 Y150.187 E207.41036
G1 X115.782 Y143.275 E208.23161
G1 X119.437 Y139.706 E208.83844
G1 X119.979 Y140.176 F7800.000
G1 F1800
G1 X123.813 Y136.432 E209.47496
G1 X136.233 Y136.430 E210.95024
G1 X136.453 Y136.210 E210.98712
G1 X136.461 Y123.794 E212.46199
G1 X143.614 Y116.476 E213.67761
G1 X149.835 Y116.327 E214.41681
G1 X156.409 Y116.476 E215.19787
G1 X163.563 Y123.797 E216.41382
G1 X163.567 Y136.201 E217.88720
G1 X163.787 Y136.421 E217.92410
G1 X176.294 Y136.416 E219.40986
G1 X183.659 Y143.776 E220.64663
G1 X183.663 Y156.203 E222.12277
G1 X176.300 Y163.568 E223.35982
G1 X163.796 Y163.568 E224.84517
G1 X163.576 Y163.788 E224.88208
G1 X163.581 Y176.195 E226.35588
G1 X156.429 Y183.522 E227.57213
G1 X149.834 Y183.673 E228.35574
G1 X143.594 Y183.522 E229.09710
G1 X136.443 Y176.198 E230.31301
G1 X136.443 Y163.788 E231.78717
G1 X136.224 Y163.568 E231.82407
G1 X123.813 Y163.568 E233.29823
G1 X116.489 Y156.417 E234.51415
G1 X116.339 Y149.823 E235.29762
G1 X116.489 Y143.583 E236.03904
G1 X119.936 Y140.217 E236.61132
G1 X120.478 Y140.687 F7800.000
G1 F1800
G1 X124.104 Y137.146 E237.21328
G1 X136.947 Y137.144 E238.73880
G1 X137.166 Y136.925 E238.77568
G1 X137.175 Y124.086 E240.30076
G1 X143.922 Y117.183 E241.44730
G1 X149.845 Y117.042 E242.15114
G1 X156.101 Y117.183 E242.89446
G1 X162.849 Y124.088 E244.04130
G1 X162.853 Y136.916 E245.56499
G1 X163.073 Y137.135 E245.60189
G1 X175.999 Y137.131 E247.13734
G1 X182.945 Y144.072 E248.30382
G1 X182.949 Y155.907 E249.70967
G1 X176.005 Y162.854 E250.87640
G1 X163.081 Y162.854 E252.41149
G1 X162.862 Y163.074 E252.44840
G1 X162.866 Y175.904 E253.97251
G1 X156.121 Y182.815 E255.11963
G1 X150.178 Y182.958 E255.82578
G1 X143.902 Y182.815 E256.57144
G1 X137.158 Y175.907 E257.71824
G1 X137.158 Y163.073 E259.24269
G1 X136.938 Y162.854 E259.27960
G1 X124.104 Y162.854 E260.80405
G1 X117.197 Y156.109 E261.95086
G1 X117.053 Y150.167 E262.65689
G1 X117.197 Y143.891 E263.40259
G1 X120.435 Y140.729 E263.94032
G1 X120.977 Y141.198 F7800.000
G1 F1800
G1 X124.395 Y137.861 E264.50773
G1 X137.661 Y137.858 E266.08349
G1 X137.880 Y137.639 E266.12037
G1 X137.889 Y124.377 E267.69567
G1 X144.229 Y117.890 E268.77311
G1 X150.166 Y117.756 E269.47852
G1 X155.794 Y117.890 E270.14719
G1 X162.134 Y124.380 E271.22492
G1 X162.139 Y137.630 E272.79890
G1 X162.359 Y137.850 E272.83580
G1 X175.703 Y137.845 E274.42096
G1 X182.231 Y144.368 E275.51715
G1 X182.234 Y155.612 E276.85269
G1 X175.709 Y162.139 E277.94913
G1 X162.367 Y162.139 E279.53393
G1 X162.147 Y162.359 E279.57084
G1 X162.152 Y175.613 E281.14527
G1 X155.813 Y182.108 E282.22326
G1 X150.168 Y182.244 E282.89402
G1 X144.210 Y182.108 E283.60190
G1 X137.872 Y175.616 E284.67961
G1 X137.872 Y162.359 E286.25435
G1 X137.652 Y162.139 E286.29125
G1 X124.395 Y162.139 E287.86600
G1 X117.904 Y155.801 E288.94371
G1 X117.767 Y150.157 E289.61436
G1 X117.904 Y144.199 E290.32228
G1 X120.935 Y141.240 E290.82546
G1 X121.476 Y141.709 F7800.000
G1 F1800
G1 X124.686 Y138.575 E291.35831
G1 X138.375 Y138.572 E292.98431
G1 X138.594 Y138.353 E293.02119
G1 X138.603 Y124.668 E294.64671
G1 X144.537 Y118.597 E295.65506
G1 X150.156 Y118.470 E296.32275
G1 X155.486 Y118.597 E296.95604
G1 X161.420 Y124.671 E297.96467
G1 X161.425 Y138.345 E299.58894
G1 X161.645 Y138.564 E299.62585
G1 X175.408 Y138.559 E301.26070
G1 X181.517 Y144.664 E302.28660
G1 X181.520 Y155.316 E303.55185
G1 X175.413 Y161.425 E304.57798
G1 X161.652 Y161.425 E306.21251
G1 X161.433 Y161.645 E306.24942
G1 X161.437 Y175.323 E307.87416
G1 X155.505 Y181.401 E308.88303
G1 X149.864 Y181.530 E309.55330
G1 X144.518 Y181.400 E310.18850
G1 X138.586 Y175.325 E311.19710
G1 X138.586 Y161.645 E312.82214
G1 X138.366 Y161.425 E312.85905
G1 X124.686 Y161.425 E314.48409
G1 X118.611 Y155.493 E315.49269
G1 X118.481 Y150.147 E316.12795
G1 X118.611 Y144.507 E316.79810
G1 X121.434 Y141.751 E317.26673
G1 X121.975 Y142.220 F7800.000
G1 F1800
G1 X124.977 Y139.289 E317.76503
G1 X139.088 Y139.286 E319.44126
G1 X139.308 Y139.067 E319.47814
G1 X139.317 Y124.959 E321.15388
G1 X144.844 Y119.305 E322.09314
G1 X149.875 Y119.185 E322.69092
G1 X155.179 Y119.305 E323.32103
G1 X160.706 Y124.962 E324.26055
G1 X160.711 Y139.059 E325.93512
G1 X160.931 Y139.279 E325.97202
G1 X175.112 Y139.274 E327.65658
G1 X180.802 Y144.961 E328.61219
G1 X180.806 Y155.020 E329.80714
G1 X175.117 Y160.711 E330.76296
G1 X160.938 Y160.711 E332.44721
G1 X160.718 Y160.931 E332.48412
G1 X160.723 Y175.032 E334.15918
G1 X155.197 Y180.693 E335.09893
G1 X149.874 Y180.816 E335.73141
G1 X144.826 Y180.693 E336.33124
G1 X139.300 Y175.034 E337.27073
G1 X139.300 Y160.931 E338.94606
G1 X139.081 Y160.711 E338.98297
G1 X124.977 Y160.711 E340.65830
G1 X119.318 Y155.185 E341.59780
G1 X119.196 Y150.137 E342.19768
G1 X119.318 Y144.815 E342.83006
G1 X121.933 Y142.262 E343.26413
G1 X122.474 Y142.731 F7800.000
G1 F1800
G1 X125.268 Y140.004 E343.72787
G1 X139.802 Y140.000 E345.45435
G1 X140.022 Y139.781 E345.49122
G1 X140.032 Y125.251 E347.21718
G1 X145.152 Y120.012 E348.08736
G1 X149.885 Y119.899 E348.64977
G1 X154.871 Y120.012 E349.24215
G1 X159.992 Y125.253 E350.11257
G1 X159.997 Y139.774 E351.83743
G1 X160.216 Y139.993 E351.87433
G1 X174.816 Y139.988 E353.60859
G1 X180.088 Y145.257 E354.49391
G1 X180.091 Y154.724 E355.61856
G1 X174.821 Y159.997 E356.50407
G1 X160.223 Y159.997 E358.23805
G1 X160.004 Y160.216 E358.27496
G1 X160.009 Y174.741 E360.00033
G1 X154.889 Y179.986 E360.87096
G1 X150.138 Y180.101 E361.43554
G1 X145.134 Y179.986 E362.03010
G1 X140.015 Y174.743 E362.90049
G1 X140.015 Y160.216 E364.62612
G1 X139.795 Y159.997 E364.66302
G1 X125.268 Y159.997 E366.38865
G1 X120.025 Y154.878 E367.25904
G1 X119.910 Y149.873 E367.85364
G1 X120.025 Y145.123 E368.41814
G1 X122.432 Y142.773 E368.81766
G1 X122.973 Y143.242 F7800.000
G1 F1800
G1 X125.559 Y140.718 E369.24685
G1 X140.516 Y140.714 E371.02356
G1 X140.735 Y140.495 E371.06044
G1 X140.746 Y125.542 E372.83661
G1 X145.459 Y120.719 E373.63770
G1 X149.895 Y120.613 E374.16475
G1 X154.563 Y120.719 E374.71940
G1 X159.278 Y125.544 E375.52071
G1 X159.283 Y140.488 E377.29586
G1 X159.502 Y140.708 E377.33277
G1 X174.521 Y140.703 E379.11673
G1 X179.374 Y145.553 E379.93176
G1 X179.377 Y154.429 E380.98611
G1 X174.525 Y159.282 E381.80132
G1 X159.509 Y159.282 E383.58502
G1 X159.289 Y159.502 E383.62193
G1 X159.294 Y174.451 E385.39761
G1 X154.581 Y179.279 E386.19912
G1 X149.894 Y179.387 E386.75604
G1 X145.442 Y179.279 E387.28509
G1 X140.729 Y174.453 E388.08638
G1 X140.729 Y159.502 E389.86230
G1 X140.509 Y159.282 E389.89920
G1 X125.559 Y159.282 E391.67513
G1 X120.732 Y154.570 E392.47642
G1 X120.624 Y150.117 E393.00552
G1 X120.732 Y145.430 E393.56235
G1 X122.931 Y143.284 E393.92732
G1 X123.472 Y143.753 F7800.000
G1 F1800
G1 X125.850 Y141.432 E394.32196
G1 X141.230 Y141.428 E396.14891
G1 X141.449 Y141.209 E396.18578
G1 X141.460 Y125.833 E398.01217
G1 X145.767 Y121.426 E398.74417
G1 X149.905 Y121.327 E399.23587
G1 X154.256 Y121.426 E399.75278
G1 X158.563 Y125.835 E400.48498
G1 X158.569 Y141.203 E402.31043
G1 X158.788 Y141.422 E402.34734
G1 X174.225 Y141.417 E404.18100
G1 X178.660 Y145.849 E404.92574
G1 X178.662 Y154.133 E405.90979
G1 X174.229 Y158.568 E406.65470
G1 X158.794 Y158.568 E408.48812
G1 X158.575 Y158.788 E408.52503
G1 X158.580 Y174.160 E410.35103
G1 X154.273 Y178.572 E411.08341
G1 X149.904 Y178.673 E411.60254
G1 X145.749 Y178.572 E412.09622
G1 X141.443 Y174.162 E412.82839
