; generated by Slic3r 1.3.0 on 2020-07-26 at 16:47:38

; external perimeters extrusion width = 0.44mm (3.38mm^3/s)
; perimeters extrusion width = 0.48mm (7.54mm^3/s)
; infill extrusion width = 0.48mm (10.05mm^3/s)
; solid infill extrusion width = 0.48mm (2.51mm^3/s)
; top infill extrusion width = 0.48mm (1.88mm^3/s)

M107
M190 S65 ; set bed temperature and wait for it to be reached
M104 S200 ; set temperature
G28 ; home all axes
G1 Z5 F5000 ; lift nozzle

; Filament gcode

M109 S200 ; set temperature and wait for it to be reached
G21 ; set units to millimeters
G90 ; use absolute coordinates
M82 ; use absolute distances for extrusion
G92 E0
G1 Z0.400 F7800.000
G1 E-2.00000 F2400.00000
G92 E0
G1 X3.254 Y92.040 F7800.000
G1 E2.00000 F2400.00000
G1 F1800
G1 X296.500 Y92.036 E36.82743
G1 X297.145 Y92.065 E36.90415
G1 X297.645 Y92.128 E36.96401
G1 X298.442 Y92.302 E37.06084
G1 X298.997 Y92.482 E37.13014
G1 X299.763 Y92.816 E37.22943
G1 X300.161 Y93.034 E37.28333
G1 X300.538 Y93.272 E37.33626
G1 X300.916 Y93.546 E37.39170
G1 X301.341 Y93.902 E37.45756
G1 X301.874 Y94.438 E37.54727
G1 X302.136 Y94.747 E37.59547
G1 X302.523 Y95.279 E37.67349
G1 X302.941 Y96.001 E37.77262
G1 X303.268 Y96.752 E37.86988
G1 X303.466 Y97.374 E37.94743
G1 X303.536 Y97.660 E37.98241
G1 X303.631 Y98.161 E38.04298
G1 X303.684 Y98.598 E38.09521
G1 X303.710 Y99.006 E38.14384
G1 X303.714 Y200.750 E50.22744
G1 X303.684 Y201.409 E50.30584
G1 X303.620 Y201.911 E50.36595
G1 X303.469 Y202.614 E50.45129
G1 X303.253 Y203.288 E50.53530
G1 X302.956 Y203.968 E50.62353
G1 X302.714 Y204.414 E50.68372
G1 X302.525 Y204.717 E50.72614
G1 X302.153 Y205.232 E50.80164
G1 X301.813 Y205.629 E50.86365
G1 X301.368 Y206.073 E50.93833
G1 X300.989 Y206.398 E50.99766
G1 X300.482 Y206.766 E51.07208
G1 X299.766 Y207.182 E51.17044
G1 X299.428 Y207.343 E51.21485
G1 X299.035 Y207.504 E51.26526
G1 X298.332 Y207.727 E51.35287
G1 X297.632 Y207.875 E51.43787
G1 X297.158 Y207.934 E51.49454
G1 X296.500 Y207.964 E51.57281
G1 X3.500 Y207.964 E86.37101
G1 X2.827 Y207.932 E86.45100
G1 X2.338 Y207.870 E86.50957
G1 X1.655 Y207.724 E86.59255
G1 X1.004 Y207.518 E86.67364
G1 X0.526 Y207.322 E86.73496
G1 X-0.156 Y206.969 E86.82614
G1 X-0.470 Y206.774 E86.87005
G1 X-1.008 Y206.382 E86.94907
G1 X-1.567 Y205.885 E87.03793
G1 X-1.848 Y205.592 E87.08614
G1 X-2.204 Y205.166 E87.15212
G1 X-2.459 Y204.816 E87.20354
G1 X-2.699 Y204.440 E87.25655
G1 X-2.922 Y204.036 E87.31126
G1 X-3.119 Y203.618 E87.36625
G1 X-3.281 Y203.212 E87.41811
G1 X-3.436 Y202.734 E87.47784
G1 X-3.537 Y202.339 E87.52624
G1 X-3.627 Y201.864 E87.58365
G1 X-3.682 Y201.428 E87.63578
G1 X-3.710 Y200.996 E87.68730
G1 X-3.711 Y99.038 E99.79626
G1 X-3.680 Y98.556 E99.85365
G1 X-3.628 Y98.137 E99.90379
G1 X-3.544 Y97.692 E99.95759
G1 X-3.422 Y97.218 E100.01573
G1 X-3.282 Y96.792 E100.06891
G1 X-3.126 Y96.398 E100.11927
G1 X-2.921 Y95.962 E100.17648
G1 X-2.717 Y95.591 E100.22678
G1 X-2.476 Y95.208 E100.28054
G1 X-2.190 Y94.815 E100.33824
G1 X-1.903 Y94.470 E100.39158
G1 X-1.612 Y94.160 E100.44211
G1 X-1.259 Y93.828 E100.49960
G1 X-0.910 Y93.541 E100.55329
G1 X-0.568 Y93.292 E100.60354
G1 X-0.158 Y93.032 E100.66112
G1 X0.238 Y92.816 E100.71481
G1 X0.620 Y92.636 E100.76494
G1 X1.071 Y92.457 E100.82257
G1 X1.473 Y92.327 E100.87268
G1 X1.911 Y92.213 E100.92649
G1 X2.387 Y92.122 E100.98402
G1 X3.194 Y92.044 E101.08030
G1 E99.08030 F2400.00000
G92 E0
G1 X274.585 Y198.578 F7800.000
G1 E2.00000 F2400.00000
G1 F1800
G1 X274.585 Y180.322 E4.16825
G1 X292.540 Y180.322 E6.30076
G1 X292.540 Y198.578 E8.46901
G1 X274.645 Y198.578 E10.59439
G1 X275.299 Y197.864 F7800.000
G1 F1800
G1 X275.299 Y181.036 E12.59301
G1 X291.826 Y181.036 E14.55588
G1 X291.826 Y197.864 E16.55450
G1 X275.359 Y197.864 E18.51024
G1 X276.013 Y197.150 F7800.000
G1 F1800
G1 X276.013 Y181.750 E20.33923
G1 X291.112 Y181.750 E22.13246
G1 X291.112 Y197.150 E23.96145
G1 X276.073 Y197.150 E25.74756
G1 X275.627 Y197.255 F7800.000
G1 E23.74756 F2400.00000
G92 E0
G1 X268.665 Y198.578 F7800.000
G1 E2.00000 F2400.00000
G1 F1800
G1 X250.710 Y198.578 E4.13251
G1 X250.710 Y180.322 E6.30076
G1 X268.665 Y180.322 E8.43326
G1 X268.665 Y198.518 E10.59439
G1 X267.951 Y197.864 F7800.000
G1 F1800
G1 X251.424 Y197.864 E12.55726
G1 X251.424 Y181.036 E14.55588
G1 X267.951 Y181.036 E16.51875
G1 X267.951 Y197.804 E18.51024
G1 X267.237 Y197.150 F7800.000
G1 F1800
G1 X252.138 Y197.150 E20.30348
G1 X252.138 Y181.750 E22.13246
G1 X267.237 Y181.750 E23.92570
G1 X267.237 Y197.090 E25.74756
G1 X267.339 Y197.537 F7800.000
G1 E23.74756 F2400.00000
G92 E0
G1 X252.497 Y178.978 F7800.000
G1 E2.00000 F2400.00000
G1 F1800
G1 X252.497 Y160.722 E4.16825
G1 X294.328 Y160.722 E9.13640
G1 X294.328 Y178.978 E11.30465
G1 X252.557 Y178.978 E16.26566
G1 X253.211 Y178.264 F7800.000
G1 F1800
G1 X253.211 Y161.436 E18.26428
G1 X293.614 Y161.436 E23.06279
G1 X293.614 Y178.264 E25.06141
G1 X253.271 Y178.264 E29.85279
G1 X253.925 Y177.550 F7800.000
G1 F1800
G1 X253.925 Y162.150 E31.68177
G1 X292.900 Y162.150 E36.31065
G1 X292.900 Y177.550 E38.13963
G1 X253.985 Y177.550 E42.76138
G1 X253.528 Y177.600 F7800.000
G1 E40.76138 F2400.00000
G92 E0
G1 X250.153 Y178.978 F7800.000
G1 E2.00000 F2400.00000
G1 F1800
G1 X232.197 Y178.978 E4.13262
G1 X232.197 Y160.722 E6.30088
G1 X250.153 Y160.722 E8.43350
G1 X250.153 Y178.918 E10.59463
G1 X249.439 Y178.264 F7800.000
G1 F1800
G1 X232.911 Y178.264 E12.55761
G1 X232.911 Y161.436 E14.55623
G1 X249.439 Y161.436 E16.51922
G1 X249.439 Y178.204 E18.51071
G1 X248.725 Y177.550 F7800.000
G1 F1800
G1 X233.625 Y177.550 E20.30407
G1 X233.625 Y162.150 E22.13305
G1 X248.725 Y162.150 E23.92641
G1 X248.725 Y177.490 E25.74826
G1 X248.827 Y177.937 F7800.000
G1 E23.74826 F2400.00000
G92 E0
G1 X230.853 Y178.978 F7800.000
G1 E2.00000 F2400.00000
G1 F1800
G1 X212.897 Y178.978 E4.13262
G1 X212.897 Y160.722 E6.30087
G1 X230.853 Y160.722 E8.43349
G1 X230.853 Y178.918 E10.59462
G1 X230.139 Y178.264 F7800.000
G1 F1800
G1 X213.611 Y178.264 E12.55761
G1 X213.611 Y161.436 E14.55623
G1 X230.139 Y161.436 E16.51921
G1 X230.139 Y178.204 E18.51071
G1 X229.425 Y177.550 F7800.000
G1 F1800
G1 X214.325 Y177.550 E20.30406
G1 X214.325 Y162.150 E22.13304
G1 X229.425 Y162.150 E23.92639
G1 X229.425 Y177.490 E25.74825
G1 X229.527 Y177.937 F7800.000
G1 E23.74825 F2400.00000
G92 E0
G1 X211.553 Y178.978 F7800.000
G1 E2.00000 F2400.00000
G1 F1800
G1 X193.597 Y178.978 E4.13262
G1 X193.597 Y160.722 E6.30088
G1 X211.553 Y160.722 E8.43350
G1 X211.553 Y178.918 E10.59463
G1 X210.839 Y178.264 F7800.000
G1 F1800
G1 X194.311 Y178.264 E12.55761
G1 X194.311 Y161.436 E14.55623
G1 X210.839 Y161.436 E16.51922
G1 X210.839 Y178.204 E18.51071
G1 X210.125 Y177.550 F7800.000
G1 F1800
G1 X195.025 Y177.550 E20.30407
G1 X195.025 Y162.150 E22.13305
G1 X210.125 Y162.150 E23.92641
G1 X210.125 Y177.490 E25.74826
G1 X210.227 Y177.937 F7800.000
G1 E23.74826 F2400.00000
G92 E0
G1 X192.253 Y178.978 F7800.000
G1 E2.00000 F2400.00000
G1 F1800
G1 X174.297 Y178.978 E4.13262
G1 X174.297 Y160.722 E6.30088
G1 X192.253 Y160.722 E8.43350
G1 X192.253 Y178.918 E10.59463
G1 X191.539 Y178.264 F7800.000
G1 F1800
G1 X175.011 Y178.264 E12.55762
G1 X175.011 Y161.436 E14.55624
G1 X191.539 Y161.436 E16.51923
G1 X191.539 Y178.204 E18.51072
G1 X190.825 Y177.550 F7800.000
G1 F1800
G1 X175.725 Y177.550 E20.30408
G1 X175.725 Y162.150 E22.13306
G1 X190.825 Y162.150 E23.92642
G1 X190.825 Y177.490 E25.74827
G1 X190.927 Y177.937 F7800.000
G1 E23.74827 F2400.00000
G92 E0
G1 X172.953 Y178.978 F7800.000
G1 E2.00000 F2400.00000
G1 F1800
G1 X154.997 Y178.978 E4.13262
G1 X154.997 Y160.722 E6.30088
G1 X172.953 Y160.722 E8.43350
G1 X172.953 Y178.918 E10.59463
G1 X172.239 Y178.264 F7800.000
G1 F1800
G1 X155.711 Y178.264 E12.55761
G1 X155.711 Y161.436 E14.55623
G1 X172.239 Y161.436 E16.51922
G1 X172.239 Y178.204 E18.51071
G1 X171.525 Y177.550 F7800.000
G1 F1800
G1 X156.425 Y177.550 E20.30407
G1 X156.425 Y162.150 E22.13305
G1 X171.525 Y162.150 E23.92641
G1 X171.525 Y177.490 E25.74826
G1 X171.627 Y177.937 F7800.000
G1 E23.74826 F2400.00000
G92 E0
G1 X153.653 Y178.978 F7800.000
G1 E2.00000 F2400.00000
G1 F1800
G1 X135.697 Y178.978 E4.13262
G1 X135.697 Y160.722 E6.30088
G1 X153.653 Y160.722 E8.43350
G1 X153.653 Y178.918 E10.59463
G1 X152.939 Y178.264 F7800.000
G1 F1800
G1 X136.411 Y178.264 E12.55761
G1 X136.411 Y161.436 E14.55623
G1 X152.939 Y161.436 E16.51922
G1 X152.939 Y178.204 E18.51071
G1 X152.225 Y177.550 F7800.000
G1 F1800
G1 X137.125 Y177.550 E20.30407
G1 X137.125 Y162.150 E22.13305
G1 X152.225 Y162.150 E23.92641
G1 X152.225 Y177.490 E25.74826
G1 X152.327 Y177.937 F7800.000
G1 E23.74826 F2400.00000
G92 E0
G1 X134.353 Y178.978 F7800.000
G1 E2.00000 F2400.00000
G1 F1800
G1 X116.397 Y178.978 E4.13262
G1 X116.397 Y160.722 E6.30087
G1 X134.353 Y160.722 E8.43350
G1 X134.353 Y178.918 E10.59462
G1 X133.639 Y178.264 F7800.000
G1 F1800
G1 X117.111 Y178.264 E12.55761
G1 X117.111 Y161.436 E14.55623
G1 X133.639 Y161.436 E16.51922
G1 X133.639 Y178.204 E18.51071
G1 X132.925 Y177.550 F7800.000
G1 F1800
G1 X117.825 Y177.550 E20.30406
G1 X117.825 Y162.150 E22.13305
G1 X132.925 Y162.150 E23.92640
G1 X132.925 Y177.490 E25.74826
G1 X133.027 Y177.937 F7800.000
G1 E23.74826 F2400.00000
G92 E0
G1 X115.053 Y178.978 F7800.000
G1 E2.00000 F2400.00000
G1 F1800
G1 X97.097 Y178.978 E4.13262
G1 X97.097 Y160.722 E6.30088
G1 X115.053 Y160.722 E8.43350
G1 X115.053 Y178.918 E10.59463
G1 X114.339 Y178.264 F7800.000
G1 F1800
G1 X97.811 Y178.264 E12.55761
G1 X97.811 Y161.436 E14.55623
G1 X114.339 Y161.436 E16.51922
G1 X114.339 Y178.204 E18.51071
G1 X113.625 Y177.550 F7800.000
G1 F1800
G1 X98.525 Y177.550 E20.30407
G1 X98.525 Y162.150 E22.13305
G1 X113.625 Y162.150 E23.92641
G1 X113.625 Y177.490 E25.74826
G1 X113.727 Y177.937 F7800.000
G1 E23.74826 F2400.00000
G92 E0
G1 X95.753 Y178.978 F7800.000
G1 E2.00000 F2400.00000
G1 F1800
G1 X77.797 Y178.978 E4.13262
G1 X77.797 Y160.722 E6.30088
G1 X95.753 Y160.722 E8.43350
G1 X95.753 Y178.918 E10.59463
G1 X95.039 Y178.264 F7800.000
G1 F1800
G1 X78.511 Y178.264 E12.55761
G1 X78.511 Y161.436 E14.55623
G1 X95.039 Y161.436 E16.51922
G1 X95.039 Y178.204 E18.51071
G1 X94.325 Y177.550 F7800.000
G1 F1800
G1 X79.225 Y177.550 E20.30407
G1 X79.225 Y162.150 E22.13305
G1 X94.325 Y162.150 E23.92641
G1 X94.325 Y177.490 E25.74826
G1 X94.427 Y177.937 F7800.000
G1 E23.74826 F2400.00000
G92 E0
G1 X76.453 Y178.978 F7800.000
G1 E2.00000 F2400.00000
G1 F1800
G1 X58.497 Y178.978 E4.13262
G1 X58.497 Y160.722 E6.30088
G1 X76.453 Y160.722 E8.43350
G1 X76.453 Y178.918 E10.59463
G1 X75.739 Y178.264 F7800.000
G1 F1800
G1 X59.211 Y178.264 E12.55762
G1 X59.211 Y161.436 E14.55623
G1 X75.739 Y161.436 E16.51922
G1 X75.739 Y178.204 E18.51071
G1 X75.025 Y177.550 F7800.000
G1 F1800
G1 X59.925 Y177.550 E20.30407
G1 X59.925 Y162.150 E22.13305
G1 X75.025 Y162.150 E23.92641
G1 X75.025 Y177.490 E25.74827
G1 X75.127 Y177.937 F7800.000
G1 E23.74827 F2400.00000
G92 E0
G1 X73.666 Y180.322 F7800.000
G1 E2.00000 F2400.00000
G1 F1800
G1 X73.666 Y198.578 E4.16825
G1 X55.709 Y198.578 E6.30088
G1 X55.709 Y180.322 E8.46913
G1 X73.606 Y180.322 E10.59463
G1 X72.952 Y181.036 F7800.000
G1 F1800
G1 X72.952 Y197.864 E12.59324
G1 X56.423 Y197.864 E14.55623
G1 X56.423 Y181.036 E16.55485
G1 X72.892 Y181.036 E18.51071
G1 X72.238 Y181.750 F7800.000
G1 F1800
G1 X72.238 Y197.150 E20.33970
G1 X57.137 Y197.150 E22.13305
G1 X57.137 Y181.750 E23.96204
G1 X72.178 Y181.750 E25.74827
G1 X72.624 Y181.645 F7800.000
G1 E23.74827 F2400.00000
G92 E0
G1 X79.584 Y180.322 F7800.000
G1 E2.00000 F2400.00000
G1 F1800
G1 X97.541 Y180.322 E4.13262
G1 X97.541 Y198.578 E6.30088
G1 X79.584 Y198.578 E8.43350
G1 X79.584 Y180.382 E10.59463
G1 X80.298 Y181.036 F7800.000
G1 F1800
G1 X96.827 Y181.036 E12.55762
G1 X96.827 Y197.864 E14.55623
G1 X80.298 Y197.864 E16.51922
G1 X80.298 Y181.096 E18.51072
G1 X81.012 Y181.750 F7800.000
G1 F1800
G1 X96.113 Y181.750 E20.30407
G1 X96.113 Y197.150 E22.13306
G1 X81.012 Y197.150 E23.92641
G1 X81.012 Y181.810 E25.74827
G1 X80.910 Y181.363 F7800.000
G1 E23.74827 F2400.00000
G92 E0
G1 X102.672 Y180.322 F7800.000
G1 E2.00000 F2400.00000
G1 F1800
G1 X221.703 Y180.322 E16.13681
G1 X221.703 Y198.578 E18.30507
G1 X102.672 Y198.578 E32.44188
G1 X102.672 Y180.382 E34.60301
G1 X103.386 Y181.036 F7800.000
G1 F1800
G1 X220.989 Y181.036 E48.57019
G1 X220.989 Y197.864 E50.56881
G1 X103.386 Y197.864 E64.53599
G1 X103.386 Y181.096 E66.52748
G1 X104.100 Y181.750 F7800.000
G1 F1800
G1 X220.275 Y181.750 E80.32502
G1 X220.275 Y197.150 E82.15401
G1 X104.100 Y197.150 E95.95155
G1 X104.100 Y181.810 E97.77341
G1 X103.915 Y181.395 F7800.000
G1 E95.77341 F2400.00000
G92 E0
G1 X107.247 Y159.378 F7800.000
G1 E2.00000 F2400.00000
G1 F1800
G1 X107.247 Y141.122 E4.16825
G1 X125.203 Y141.122 E6.30088
G1 X125.203 Y159.378 E8.46913
G1 X107.307 Y159.378 E10.59463
G1 X107.961 Y158.664 F7800.000
G1 F1800
G1 X107.961 Y141.836 E12.59324
G1 X124.489 Y141.836 E14.55623
G1 X124.489 Y158.664 E16.55485
G1 X108.021 Y158.664 E18.51071
G1 X108.675 Y157.950 F7800.000
G1 F1800
G1 X108.675 Y142.550 E20.33970
G1 X123.775 Y142.550 E22.13305
G1 X123.775 Y157.950 E23.96203
G1 X108.735 Y157.950 E25.74826
G1 X108.289 Y158.055 F7800.000
G1 E23.74826 F2400.00000
G92 E0
G1 X105.903 Y159.378 F7800.000
G1 E2.00000 F2400.00000
G1 F1800
G1 X87.947 Y159.378 E4.13262
G1 X87.947 Y141.122 E6.30088
G1 X105.903 Y141.122 E8.43350
G1 X105.903 Y159.318 E10.59463
G1 X105.189 Y158.664 F7800.000
G1 F1800
G1 X88.661 Y158.664 E12.55761
G1 X88.661 Y141.836 E14.55623
G1 X105.189 Y141.836 E16.51922
G1 X105.189 Y158.604 E18.51071
G1 X104.475 Y157.950 F7800.000
G1 F1800
G1 X89.375 Y157.950 E20.30407
G1 X89.375 Y142.550 E22.13305
G1 X104.475 Y142.550 E23.92641
G1 X104.475 Y157.890 E25.74826
G1 X104.577 Y158.337 F7800.000
G1 E23.74826 F2400.00000
G92 E0
G1 X86.603 Y159.378 F7800.000
G1 E2.00000 F2400.00000
G1 F1800
G1 X68.647 Y159.378 E4.13262
G1 X68.647 Y141.122 E6.30088
G1 X86.603 Y141.122 E8.43350
G1 X86.603 Y159.318 E10.59463
G1 X85.889 Y158.664 F7800.000
G1 F1800
G1 X69.361 Y158.664 E12.55761
G1 X69.361 Y141.836 E14.55623
G1 X85.889 Y141.836 E16.51922
G1 X85.889 Y158.604 E18.51071
G1 X85.175 Y157.950 F7800.000
G1 F1800
G1 X70.075 Y157.950 E20.30407
G1 X70.075 Y142.550 E22.13305
G1 X85.175 Y142.550 E23.92641
G1 X85.175 Y157.890 E25.74826
G1 X85.277 Y158.337 F7800.000
G1 E23.74826 F2400.00000
G92 E0
G1 X67.303 Y159.378 F7800.000
G1 E2.00000 F2400.00000
G1 F1800
G1 X49.347 Y159.378 E4.13262
G1 X49.347 Y141.122 E6.30088
G1 X67.303 Y141.122 E8.43350
G1 X67.303 Y159.318 E10.59462
G1 X66.589 Y158.664 F7800.000
G1 F1800
G1 X50.061 Y158.664 E12.55761
G1 X50.061 Y141.836 E14.55623
G1 X66.589 Y141.836 E16.51922
G1 X66.589 Y158.604 E18.51071
G1 X65.875 Y157.950 F7800.000
G1 F1800
G1 X50.775 Y157.950 E20.30406
G1 X50.775 Y142.550 E22.13305
G1 X65.875 Y142.550 E23.92640
G1 X65.875 Y157.890 E25.74826
G1 X65.977 Y158.337 F7800.000
G1 E23.74826 F2400.00000
G92 E0
G1 X71.878 Y139.778 F7800.000
G1 E2.00000 F2400.00000
G1 F1800
G1 X53.922 Y139.778 E4.13262
G1 X53.922 Y121.522 E6.30088
G1 X71.878 Y121.522 E8.43350
G1 X71.878 Y139.718 E10.59463
G1 X71.164 Y139.064 F7800.000
G1 F1800
G1 X54.636 Y139.064 E12.55762
G1 X54.636 Y122.236 E14.55623
G1 X71.164 Y122.236 E16.51922
G1 X71.164 Y139.004 E18.51071
G1 X70.450 Y138.350 F7800.000
G1 F1800
G1 X55.350 Y138.350 E20.30407
G1 X55.350 Y122.950 E22.13305
G1 X70.450 Y122.950 E23.92641
G1 X70.450 Y138.290 E25.74827
G1 X70.552 Y138.737 F7800.000
G1 E23.74827 F2400.00000
G92 E0
G1 X73.222 Y139.778 F7800.000
G1 E2.00000 F2400.00000
G1 F1800
G1 X73.222 Y121.522 E4.16825
G1 X91.178 Y121.522 E6.30088
G1 X91.178 Y139.778 E8.46913
G1 X73.282 Y139.778 E10.59463
G1 X73.936 Y139.064 F7800.000
G1 F1800
G1 X73.936 Y122.236 E12.59324
G1 X90.464 Y122.236 E14.55623
G1 X90.464 Y139.064 E16.55485
G1 X73.996 Y139.064 E18.51071
G1 X74.650 Y138.350 F7800.000
G1 F1800
G1 X74.650 Y122.950 E20.33970
G1 X89.750 Y122.950 E22.13305
G1 X89.750 Y138.350 E23.96203
G1 X74.710 Y138.350 E25.74826
G1 X74.264 Y138.455 F7800.000
G1 E23.74826 F2400.00000
G92 E0
G1 X92.522 Y139.778 F7800.000
G1 E2.00000 F2400.00000
G1 F1800
